X:55
T:The Sultan's Polka
M:2/4
L:1/8
R:Polka
K:D
 |:f2 f3/2e/2|ed d3/2d/2|cd ef|a^g g2|
 |g2g3/2f/2|fe e3/2e/2|dc Bc[1B AA e[2d3 e|]
 |:fB fB|fB B2|dB Bd |cFF2|
 |fB fB|fB B2|dd c2|d/2c3/2B2:|
 |:A2 de|f3g|a2 gf|e2 BB|
 [1e2f2|g2a2|b2 ag |fedB[2b2 c'b|b2 aa|fga2|(3gfe d2|]
